assets/tickettailor/original.svg

<svg viewBox="0 0 24 24" xmlns="http://www.w3.org/2000/svg"><path d="m21.328 19.239-6.045-18.608a.913.913 0 0 0 -1.15-.586l-3.374 1.096a2.146 2.146 0 1 1 -4.083 1.325l-3.545 1.154a.73.73 0 0 0 -.469.92l6.159 18.955a.73.73 0 0 0 .92.469l3.545-1.152a2.148 2.148 0 1 1 4.085-1.327l3.372-1.096a.913.913 0 0 0 .586-1.15zm-11.026-4.719h-1.724v-6.175h-2.072v-1.672h5.857v1.672h-2.061zm6.865-3.577h-2.061v6.176h-1.726v-6.176h-2.073v-1.672h5.86z" fill="#222432"/></svg>

<svg xmlns="http://www.w3.org/2000/svg" viewBox="0 0 24 24"><title>Ticket Tailor</title><path fill="#222432" d="M21.328 19.239 15.283.631a.913.913 0 0 0-1.15-.586l-3.374 1.096a2.146 2.146 0 1 1-4.083 1.325L3.131 3.62a.73.73 0 0 0-.469.92l6.159 18.955a.73.73 0 0 0 .92.469l3.545-1.152a2.148 2.148 0 1 1 4.085-1.327l3.372-1.096a.913.913 0 0 0 .586-1.15zM10.302 14.52H8.578V8.345H6.506V6.673h5.857v1.672h-2.061zm6.865-3.577h-2.061v6.176H13.38v-6.176h-2.073V9.271h5.86z"/></svg>
